picto/jetty-left.svg

<svg class="color-immutable" width="24" height="24" viewBox="0 0 24 24" fill="none" xmlns="http://www.w3.org/2000/svg"><g clip-path="url(#a)"><path d="M0 22.5v-21C0 .675.675 0 1.5 0h21c.825 0 1.5.675 1.5 1.5v21c0 .825-.675 1.5-1.5 1.5h-21C.675 24 0 23.325 0 22.5Z" fill="#2D327D"/><path d="M20.25 8.25H21V7.5h-5.662a.375.375 0 0 0 0 .75h.525l-.375 2.251h-4.612v2.25h1.313L11.813 15H2.776l2.25 4.267 1.606-.339c.287-.037.577-.059.868-.066.291.006.581.029.868.066l2.52.532c.366.076.739.114 1.112.115a5.528 5.528 0 0 0 1.111-.115l2.52-.532c.289-.037.579-.059.869-.066.29.006.58.029.869.066l2.519.532c.367.076.739.114 1.113.115V15h-.75a.375.375 0 0 1-.375-.375v-1.5c0-.206.168-.374.375-.374H21v-2.25h-.75a.376.376 0 0 1-.375-.376v-1.5c0-.207.168-.375.375-.375Zm-4.725 6.375a.376.376 0 0 1-.374.375H12.94a.376.376 0 0 1-.369-.436l.25-1.5a.376.376 0 0 1 .37-.313h1.961c.206 0 .374.168.374.374v1.5h-.001Zm3.676 0a.376.376 0 0 1-.375.375h-2.25a.376.376 0 0 1-.375-.375v-1.5c0-.206.168-.374.375-.374h2.25c.207 0 .375.168.375.374v1.5Zm0-4.5a.376.376 0 0 1-.375.376h-2.211a.376.376 0 0 1-.369-.438l.25-1.499a.377.377 0 0 1 .371-.313h1.96c.207 0 .375.168.375.375v1.499h-.001ZM17.25 19.632c-.25-.032-.5-.05-.751-.056a7.215 7.215 0 0 0-.75.056l-2.492.525c-.414.087-.835.13-1.258.131a6.19 6.19 0 0 1-1.258-.131l-2.491-.525c-.25-.032-.5-.05-.751-.056a7.235 7.235 0 0 0-.75.056l-2.493.525c-.413.088-.833.13-1.256.131V21a6.896 6.896 0 0 0 1.403-.145l2.464-.52c.21-.025.421-.041.633-.047.212.007.423.022.634.047l2.463.52a6.898 6.898 0 0 0 2.808 0l2.464-.52a7.01 7.01 0 0 1 .633-.047c.212.007.423.022.634.047l2.463.52c.459.097.929.144 1.401.145v-.712a6.2 6.2 0 0 1-1.259-.131l-2.491-.525Z" fill="#fff"/></g><defs><clipPath id="a"><path fill="#fff" d="M0 0h24v24H0z"/></clipPath></defs></svg>

<svg class="color-immutable" width="24" height="24" viewBox="0 0 24 24" fill="none" xmlns="http://www.w3.org/2000/svg"><path d="M0 22.5V1.5C0 0.675 0.675 0 1.5 0H22.5C23.325 0 24 0.675 24 1.5V22.5C24 23.325 23.325 24 22.5 24H1.5C0.675 24 0 23.325 0 22.5Z" fill="#2D327D"/><path d="M20.25 8.25H21V7.5H15.338C15.131 7.5 14.963 7.668 14.963 7.875C14.963 8.082 15.131 8.25 15.338 8.25H15.863L15.488 10.501H10.876V12.751H12.189L11.813 15H2.776L5.026 19.267L6.632 18.928C6.919 18.891 7.209 18.869 7.5 18.862C7.791 18.868 8.081 18.891 8.368 18.928L10.888 19.46C11.254 19.536 11.627 19.574 12 19.575C12.373 19.574 12.746 19.536 13.111 19.46L15.631 18.928C15.92 18.891 16.21 18.869 16.5 18.862C16.79 18.868 17.08 18.891 17.369 18.928L19.888 19.46C20.255 19.536 20.627 19.574 21.001 19.575V15H20.251C20.044 15 19.876 14.832 19.876 14.625V13.125C19.876 12.919 20.044 12.751 20.251 12.751H21V10.501H20.25C20.043 10.501 19.875 10.332 19.875 10.125V8.625C19.875 8.418 20.043 8.25 20.25 8.25ZM15.525 14.625C15.525 14.831 15.357 15 15.151 15H12.94C12.733 15 12.565 14.831 12.565 14.625C12.565 14.605 12.568 14.584 12.571 14.564L12.821 13.064C12.852 12.883 13.008 12.751 13.191 12.751H15.152C15.358 12.751 15.526 12.919 15.526 13.125V14.625H15.525ZM19.201 14.625C19.201 14.831 19.033 15 18.826 15H16.576C16.369 15 16.201 14.831 16.201 14.625V13.125C16.201 12.919 16.369 12.751 16.576 12.751H18.826C19.033 12.751 19.201 12.919 19.201 13.125V14.625ZM19.201 10.125C19.201 10.332 19.033 10.501 18.826 10.501H16.615C16.409 10.501 16.241 10.332 16.241 10.125C16.241 10.104 16.242 10.084 16.246 10.063L16.496 8.564C16.527 8.384 16.683 8.251 16.867 8.251H18.827C19.034 8.251 19.202 8.419 19.202 8.626V10.125H19.201Z" fill="white"/><path d="M17.25 19.632C17 19.6 16.75 19.582 16.499 19.576C16.248 19.582 15.997 19.6 15.749 19.632L13.257 20.157C12.843 20.244 12.422 20.287 11.999 20.288C11.576 20.287 11.156 20.244 10.741 20.157L8.25 19.632C8 19.6 7.75 19.582 7.499 19.576C7.248 19.582 6.998 19.6 6.749 19.632L4.256 20.157C3.843 20.245 3.423 20.287 3 20.288V21C3.471 20.999 3.941 20.952 4.403 20.855L6.867 20.335C7.077 20.31 7.288 20.294 7.5 20.288C7.712 20.295 7.923 20.31 8.134 20.335L10.597 20.855C11.059 20.952 11.529 20.999 12.001 21C12.473 20.999 12.943 20.952 13.405 20.855L15.869 20.335C16.078 20.31 16.29 20.294 16.502 20.288C16.714 20.295 16.925 20.31 17.136 20.335L19.599 20.855C20.058 20.952 20.528 20.999 21 21V20.288C20.577 20.287 20.156 20.244 19.741 20.157L17.25 19.632Z" fill="white"/></svg>
